X:7043
T:The MacDonald Sisters
R:jig
C:Paul S. Cranford
D:The Lighthouse, Cranford Publications
B:The Lighthouse Collection, ISBN 0-9691181-5-5
N:Contacts ...
N:..... Cranford Publications <http://www.cranfordpub.com>
H:Composed for the daughters of Mary Hughie MacDonald.
O:England
L:1/8
Q:288
M:6/8
K:Bb
g|fdB Bcd|cAF F2 E|DFB dcB|gfd cde|
fdB Bcd|cAF F2 E|DFB Agf|dBB B2:|
|:f|bfd fec|dBF EFG|DFB BAB|dcB c2B|
[1bfd fec|dBF EFG|DFB ABc|dBB B2:|
[2bfd gec|fdB cAF|EFG Agf|dBB B2|]


